!!!OTL: Schön Elschen (3-54), S. 142
!!!id: K1184
**kern
*clefG2
*k[b-]
*F:
{8c
=1
8a
8a
8cc
8cc
=2
8.b-
16a
4g}
=3
16r
=4
{16f
16e
16f
8g
8a
=5
4f}
8r
=6
{8d
=7
8b-
8b-
8dd
8dd
=8
8.b-
16a
4g}
=9
16r
=10
{16f
16e
16f
8g
8cc
=11
4cc
4ff}
=12
16r
{16a
16g
16a
8b-
8e
=13
4f}
8r
==
*-
!!!minrhy: 16
!!!meters: 2/4 ]  ZZ[5
!!!cut: Schön Elschen (3-54), S. 142
!!!reg: Luxemburg
!!!trd: KINTZELE, Guillaume: An der Ucht, Bd. 3 Luxemburg 1928
!!!rhy1: X_  X_X_X_X_  X_.XX__  0
!!!rhy2: XXXX_X_  X__0_
!!!key: K1184  16  F 2/4 ]  ZZ[5
!!!mod: HEPTATONIK IONISCH]  AMBITUS[11
!!!kad: 212+11
!!!akz: 34_1_44_5_1_
!!!fot: 'a__b__c__d__e__
!!!for: 'a__b__a__c__d__
!!!fok: '^a_^__^a_/__\__
!! PHRAS[AUFTAKTIG]
!!!fkt: Scherzlied, Verf&uuml;hrung
!!!bem: in der Quelle mit einer 2. Stimme versehen
!! KINTZELE
!! PR[13] 2K[3] 2G[13] 3K[15] 3G[8] 4A[3] 4Ü[0] 5A[0] 6K[0] 6G[0]
!! 7K[0] 7G[0] 8A[0] MEHR[0] SI[41] ABS[39] SR[15] SP[26]
!! ST[10] 2k[13] 2g[23] 3k[3] 3g[5] 4d[0] 4ü[0] 5d[3] 6k[0] 6g[0]
!! 7k[0] 7g[0] 8d[0] mehr[0] si[46] dm[-5] sr[36] sp[10]
!! 1F[57] 2F[43] 3F[0] 4F[0] LF[0] 2P[0] 3P[0] 4P[0] TRI[0] DF[2] AB[42]
!! TF[0] U3K[0] U3[0] U4[0] U4Ü[0] U5[8] U6K[0] U6[0] U7K[0] U7[3]
!! N1[13] N2K[0] N2[18] N3K[0] N3[25] N4[20] N4Ü[0] N5[13] N6K[0] N6[3]
!!!n7k: 0] N7[0] O1[0] O2K[0] O2[0] O3K[0] O3[0] HÖ[0
!!!RNB: symbol: &uuml;  = u umlaut (UTF-8: Ã¼)
